;FLAVOR:Marlin
;TIME:5503
;Filament used: 4.24937m
;Layer height: 0.2
;MINX:90.979
;MINY:76.681
;MINZ:0.2
;MAXX:144.021
;MAXY:158.318
;MAXZ:29.6
;Generated with Cura_SteamEngine 4.13.1
M82 ;absolute extrusion mode
                                 ; BIQU B1 Start G-code
M117 Getting the bed up to temp!
M140 S100      ; Set Heat Bed temperature
M190 S100      ; Wait for Heat Bed temperature
M117 Getting the extruder up to temp!
M104 S245.0    ; Set Extruder temperature
G92 E0                           ; Reset Extruder
M117 Homing axes
G28                              ; Home all axes
M109 S245.0    ; Wait for Extruder temperature
G1 Z2.0 F3000                    ; Move Z Axis up little to prevent scratching of Heat Bed
G1 X4.1 Y20 Z0.3 F5000.0         ; Move to start position
M117 Purging
G1 X4.1 Y200.0 Z0.3 F1500.0 E15  ; Draw the first line
G1 X4.4 Y200.0 Z0.3 F5000.0      ; Move to side a little
G1 X4.4 Y20 Z0.3 F1500.0 E30     ; Draw the second line
G92 E0                           ; Reset Extruder
M117 Lets make
G1 Z2.0 F3000                    ; Move Z Axis up little to prevent scratching of Heat Bed
G1 X5 Y20 Z0.3 F5000.0           ; Move over to prevent blob squish
G92 E0
G92 E0
G1 F1200 E-3
;LAYER_COUNT:148
;LAYER:0
M107
G0 X94.188 Y85.543 Z0.2
;TYPE:SKIRT
G1 F1200 E0
G1 X94.877 Y84.907 E0.03119
G1 X95.617 Y84.331 E0.06238
G1 X96.38 Y83.836 E0.09263
G1 X96.738 Y83.626 E0.10643
G1 X97.1 Y83.422 E0.12025
G1 X99.121 Y82.313 E0.19693
G1 X99.587 Y82.051 E0.21471
G1 X106.157 Y78.43 E0.46422
G1 X106.761 Y78.106 E0.48701
G1 X107.606 Y77.698 E0.51822
G1 X108.482 Y77.364 E0.5494
G1 X109.384 Y77.105 E0.58062
G1 X110.304 Y76.925 E0.6118
G1 X110.938 Y76.847 E0.63304
G1 X111.551 Y76.79 E0.65352
G1 X112.173 Y76.74 E0.67427
G1 X112.828 Y76.707 E0.69609
G1 X113.994 Y76.683 E0.73488
G1 X114.221 Y76.681 E0.74243
G1 X122.272 Y76.683 E1.0102
G1 X122.96 Y76.693 E1.03309
G1 X123.896 Y76.747 E1.06427
G1 X124.825 Y76.88 E1.09549
G1 X125.354 Y76.992 E1.11347
G1 X126.258 Y77.243 E1.14468
G1 X127.137 Y77.57 E1.17587
G1 X127.883 Y77.917 E1.20323
G1 X128.09 Y78.023 E1.21097
G1 X128.373 Y78.174 E1.22164
G1 X129.537 Y78.813 E1.2658
G1 X137.644 Y83.28 E1.57367
G1 X138.41 Y83.716 E1.60298
G1 X139.204 Y84.215 E1.63417
G1 X139.953 Y84.779 E1.66536
G1 X140.651 Y85.406 E1.69656
G1 X141.293 Y86.089 E1.72774
G1 X141.875 Y86.825 E1.75895
G1 X142.519 Y87.825 E1.79851
G1 X142.568 Y87.911 E1.8018
G1 X142.997 Y88.745 E1.83299
G1 X143.353 Y89.613 E1.8642
G1 X143.635 Y90.508 E1.89541
G1 X143.839 Y91.423 E1.92659
G1 X143.964 Y92.352 E1.95777
G1 X144.009 Y93.193 E1.98578
G1 X144.021 Y94.094 E2.01575
G1 X144.02 Y103.956 E2.34376
G1 X144.01 Y104.653 E2.36694
G1 X143.986 Y105.234 E2.38628
G1 X143.92 Y105.92 E2.40921
G1 X143.901 Y106.073 E2.41433
G1 X143.607 Y108.654 E2.50073
G1 X143.393 Y111.161 E2.58442
G1 X143.252 Y113.644 E2.66714
G1 X143.18 Y116.202 E2.75225
G1 X143.18 Y118.691 E2.83504
G1 X143.252 Y121.25 E2.92018
G1 X143.392 Y123.708 E3.00207
G1 X143.61 Y126.278 E3.08785
G1 X143.793 Y127.967 E3.14436
G1 X143.935 Y129.172 E3.18471
G1 X144.005 Y130.101 E3.2157
G1 X144.019 Y130.612 E3.2327
G1 X144.021 Y130.849 E3.24059
G1 X144.02 Y141.061 E3.58024
G1 X144.01 Y141.792 E3.60455
G1 X143.957 Y142.729 E3.63577
G1 X143.825 Y143.657 E3.66694
G1 X143.614 Y144.571 E3.69814
G1 X143.326 Y145.464 E3.72935
G1 X142.963 Y146.328 E3.76052
G1 X142.527 Y147.159 E3.79173
G1 X142.023 Y147.95 E3.82293
G1 X141.453 Y148.694 E3.8541
G1 X140.821 Y149.388 E3.88532
G1 X140.107 Y150.048 E3.91766
G1 X139.876 Y150.243 E3.92772
G1 X139.134 Y150.816 E3.9589
G1 X138.212 Y151.402 E3.99523
G1 X137.892 Y151.583 E4.00746
G1 X128.798 Y156.596 E4.35284
G1 X128.213 Y156.908 E4.37489
G1 X127.368 Y157.314 E4.40607
G1 X126.491 Y157.646 E4.43726
G1 X125.589 Y157.902 E4.46845
G1 X124.668 Y158.08 E4.49965
G1 X124.063 Y158.154 E4.51992
G1 X123.209 Y158.234 E4.54845
G1 X122.889 Y158.259 E4.55912
G1 X122.469 Y158.286 E4.57312
G1 X122.132 Y158.303 E4.58434
G1 X121.743 Y158.313 E4.59729
G1 X121.274 Y158.318 E4.61289
G1 X112.734 Y158.317 E4.89693
G1 X112.044 Y158.307 E4.91988
G1 X111.107 Y158.253 E4.9511
G1 X110.179 Y158.12 E4.98228
G1 X109.6 Y157.995 E5.00198
G1 X109.522 Y157.976 E5.00465
G1 X108.621 Y157.716 E5.03584
G1 X107.745 Y157.379 E5.06706
G1 X107.108 Y157.079 E5.09047
G1 X106.907 Y156.976 E5.09799
G1 X106.627 Y156.827 E5.10854
G1 X105.439 Y156.174 E5.15362
G1 X100.68 Y153.549 E5.33439
G1 X100.231 Y153.293 E5.35158
G1 X98.139 Y152.137 E5.43108
G1 X97.319 Y151.697 E5.46203
G1 X97.07 Y151.56 E5.47148
G1 X96.545 Y151.261 E5.49158
G1 X95.751 Y150.762 E5.52277
G1 X95.002 Y150.198 E5.55395
G1 X94.303 Y149.572 E5.58516
G1 X93.661 Y148.888 E5.61636
G1 X93.079 Y148.153 E5.64755
G1 X92.562 Y147.37 E5.67875
G1 X92.113 Y146.547 E5.70993
G1 X91.737 Y145.688 E5.74112
G1 X91.434 Y144.8 E5.77233
G1 X91.209 Y143.89 E5.80351
G1 X91.062 Y142.963 E5.83472
G1 X90.996 Y142.097 E5.86361
G1 X90.99 Y141.93 E5.86917
G1 X90.984 Y141.653 E5.87838
G1 X90.979 Y141.162 E5.89472
G1 X90.98 Y130.953 E6.23427
G1 X90.991 Y130.237 E6.25809
G1 X91.08 Y129 E6.29934
G1 X91.384 Y126.342 E6.38832
G1 X91.598 Y123.835 E6.472
G1 X91.74 Y121.319 E6.55582
G1 X91.812 Y118.824 E6.63884
G1 X91.812 Y116.299 E6.72282
G1 X91.741 Y113.748 E6.8077
G1 X91.601 Y111.285 E6.88975
G1 X91.384 Y108.727 E6.97514
G1 X91.21 Y107.112 E7.02916
G1 X91.062 Y105.847 E7.07152
G1 X90.993 Y104.911 E7.10274
G1 X90.985 Y104.652 E7.11136
G1 X90.98 Y104.313 E7.12263
G1 X90.98 Y93.809 E7.472
G1 X90.99 Y93.135 E7.49442
G1 X91.044 Y92.198 E7.52563
G1 X91.178 Y91.27 E7.55682
G1 X91.39 Y90.357 E7.58799
G1 X91.679 Y89.464 E7.61921
G1 X92.043 Y88.6 E7.6504
G1 X92.479 Y87.77 E7.68158
G1 X92.985 Y86.98 E7.71278
G1 X93.555 Y86.236 E7.74395
G1 X93.649 Y86.134 E7.74857
G0 F1080 X94.188 Y85.543
G0 F1200 X94.579 Y85.718
G1 X95.265 Y85.104 E7.77919
G1 X96.001 Y84.551 E7.80981
G1 X96.584 Y84.18 E7.83279
G1 X96.935 Y83.974 E7.84633
G1 X97.292 Y83.773 E7.85995
G1 X99.303 Y82.669 E7.93626
G1 X99.78 Y82.401 E7.95446
G1 X106.346 Y78.782 E8.20382
G1 X106.95 Y78.458 E8.22661
G1 X107.78 Y78.059 E8.25724
G1 X108.641 Y77.732 E8.28788
G1 X109.527 Y77.482 E8.3185
G1 X110.431 Y77.31 E8.3491
G1 X110.975 Y77.245 E8.36732
G1 X111.583 Y77.189 E8.38763
G1 X112.205 Y77.139 E8.40839
G1 X112.836 Y77.107 E8.4294
G1 X114.002 Y77.083 E8.46819
G1 X114.221 Y77.081 E8.47547
G1 X122.266 Y77.083 E8.74305
G1 X122.954 Y77.093 E8.76594
G1 X123.873 Y77.146 E8.79655
G1 X125.194 Y77.366 E8.8411
G1 X125.263 Y77.382 E8.84345
G1 X126.15 Y77.629 E8.87408
G1 X127.013 Y77.951 E8.90471
G1 X127.7 Y78.273 E8.92995
G1 X127.907 Y78.379 E8.93768
G1 X128.181 Y78.524 E8.94799
G1 X137.451 Y83.63 E9.29999
G1 X138.212 Y84.063 E9.32911
G1 X138.991 Y84.553 E9.35972
G1 X139.725 Y85.11 E9.39037
G1 X140.408 Y85.727 E9.42098
G1 X141.034 Y86.402 E9.4516
G1 X141.6 Y87.128 E9.48222
G1 X142.171 Y88.023 E9.51753
G1 X142.22 Y88.109 E9.52082
G1 X142.641 Y88.928 E9.55145
G1 X142.989 Y89.781 E9.58209
G1 X143.261 Y90.66 E9.61269
G1 X143.457 Y91.56 E9.64333
G1 X143.573 Y92.473 E9.67394
G1 X143.609 Y93.199 E9.69812
G1 X143.621 Y94.094 E9.72789
G1 X143.62 Y103.95 E10.0557
G1 X143.61 Y104.647 E10.07888
G1 X143.587 Y105.208 E10.09756
G1 X143.524 Y105.869 E10.11964
G1 X143.501 Y106.053 E10.12581
G1 X143.21 Y108.607 E10.21131
G1 X142.994 Y111.139 E10.29583
G1 X142.852 Y113.646 E10.37934
G1 X142.78 Y116.191 E10.46403
G1 X142.78 Y118.702 E10.54754
G1 X142.852 Y121.248 E10.63226
G1 X142.995 Y123.766 E10.71614
G1 X143.211 Y126.311 E10.80109
G1 X143.384 Y127.913 E10.85468
G1 X143.538 Y129.219 E10.89842
G1 X143.605 Y130.114 E10.92827
G1 X143.619 Y130.616 E10.94498
G1 X143.621 Y130.853 E10.95286
G1 X143.62 Y141.056 E11.29221
G1 X143.61 Y141.787 E11.31653
G1 X143.557 Y142.706 E11.34714
G1 X143.425 Y143.617 E11.37776
G1 X143.215 Y144.513 E11.40837
G1 X142.927 Y145.388 E11.43901
G1 X142.565 Y146.234 E11.46961
G1 X142.13 Y147.046 E11.50025
G1 X141.627 Y147.817 E11.53087
G1 X141.058 Y148.541 E11.5615
G1 X140.429 Y149.213 E11.59211
G1 X139.849 Y149.742 E11.61822
G1 X139.618 Y149.937 E11.62828
G1 X138.889 Y150.5 E11.65891
G1 X138.014 Y151.055 E11.69338
G1 X137.699 Y151.232 E11.70539
G1 X128.61 Y156.243 E12.05059
G1 X128.025 Y156.555 E12.07265
G1 X127.195 Y156.953 E12.10326
G1 X126.333 Y157.277 E12.13389
G1 X125.446 Y157.525 E12.16452
G1 X124.542 Y157.695 E12.19512
G1 X124.026 Y157.756 E12.2124
G1 X123.172 Y157.836 E12.24093
G1 X122.863 Y157.86 E12.25124
G1 X122.443 Y157.887 E12.26523
G1 X122.119 Y157.903 E12.27602
G1 X121.739 Y157.913 E12.28867
G1 X121.274 Y157.918 E12.30413
G1 X112.739 Y157.917 E12.58801
G1 X112.049 Y157.907 E12.61096
G1 X111.13 Y157.854 E12.64158
G1 X110.219 Y157.721 E12.6722
G1 X109.694 Y157.607 E12.69007
G1 X109.616 Y157.588 E12.69274
G1 X108.732 Y157.331 E12.72336
G1 X107.874 Y156.999 E12.75396
G1 X107.291 Y156.723 E12.77541
G1 X107.09 Y156.62 E12.78292
G1 X106.82 Y156.476 E12.7931
G1 X105.632 Y155.824 E12.83817
G1 X101.007 Y153.274 E13.01383
G1 X100.475 Y152.971 E13.03419
G1 X98.283 Y151.759 E13.1175
G1 X97.508 Y151.344 E13.14674
G1 X97.268 Y151.212 E13.15585
G1 X96.743 Y150.913 E13.17595
G1 X95.964 Y150.423 E13.20656
G1 X95.23 Y149.867 E13.23718
G1 X94.547 Y149.25 E13.2678
G1 X93.92 Y148.576 E13.29841
G1 X93.354 Y147.85 E13.32903
G1 X92.853 Y147.077 E13.35967
G1 X92.421 Y146.264 E13.39029
G1 X92.061 Y145.417 E13.4209
G1 X91.776 Y144.541 E13.45154
G1 X91.568 Y143.644 E13.48217
G1 X91.439 Y142.733 E13.51277
G1 X91.396 Y142.083 E13.53443
G1 X91.384 Y141.649 E13.54887
G1 X91.379 Y141.162 E13.56507
G1 X91.38 Y130.959 E13.90443
G1 X91.391 Y130.243 E13.92824
G1 X91.477 Y129.052 E13.96796
G1 X91.781 Y126.389 E14.05711
G1 X91.997 Y123.857 E14.14163
G1 X92.139 Y121.352 E14.22508
G1 X92.212 Y118.8 E14.30999
G1 X92.212 Y116.288 E14.39354
G1 X92.141 Y113.75 E14.47799
G1 X91.998 Y111.227 E14.56204
G1 X91.783 Y108.695 E14.64656
G1 X91.608 Y107.069 E14.70095
G1 X91.46 Y105.801 E14.74341
G1 X91.393 Y104.898 E14.77353
G1 X91.385 Y104.639 E14.78214
G1 X91.38 Y104.313 E14.79299
G1 X91.38 Y93.815 E15.14215
G1 X91.39 Y93.141 E15.16457
G1 X91.444 Y92.222 E15.19519
G1 X91.577 Y91.311 E15.22581
G1 X91.789 Y90.415 E15.25644
G1 X92.077 Y89.54 E15.28708
G1 X92.441 Y88.695 E15.31768
G1 X92.876 Y87.883 E15.34832
G1 X93.38 Y87.113 E15.37892
G1 X93.95 Y86.389 E15.40957
G1 X94.032 Y86.302 E15.41355
G0 F1080 X94.579 Y85.718
G0 F1200 X94.971 Y85.897
G1 X95.653 Y85.305 E15.44359
G1 X96.385 Y84.776 E15.47362
G1 X96.788 Y84.524 E15.48943
G1 X97.132 Y84.322 E15.5027
G1 X97.484 Y84.124 E15.51613
G1 X99.543 Y82.994 E15.59425
G1 X99.973 Y82.751 E15.61068
G1 X106.535 Y79.135 E15.85988
G1 X107.139 Y78.811 E15.88267
G1 X107.953 Y78.419 E15.91272
G1 X108.799 Y78.102 E15.94277
G1 X109.669 Y77.86 E15.97281
G1 X110.557 Y77.696 E16.00284
G1 X111.012 Y77.643 E16.01808
G1 X111.615 Y77.588 E16.03822
G1 X112.237 Y77.538 E16.05897
G1 X112.844 Y77.507 E16.07919
G1 X114.01 Y77.483 E16.11797
G1 X114.221 Y77.481 E16.12499
G1 X122.26 Y77.483 E16.39237
G1 X122.948 Y77.493 E16.41526
G1 X123.85 Y77.546 E16.44531
G1 X125.104 Y77.756 E16.4876
G1 X125.173 Y77.772 E16.48995
G1 X126.043 Y78.014 E16.51999
G1 X126.888 Y78.333 E16.55003
G1 X127.518 Y78.629 E16.57318
G1 X127.725 Y78.735 E16.58092
G1 X127.988 Y78.875 E16.59083
G1 X129.15 Y79.513 E16.63492
G1 X137.257 Y83.98 E16.94278
G1 X138.014 Y84.411 E16.97175
G1 X138.778 Y84.892 E17.00178
G1 X139.496 Y85.44 E17.03182
G1 X140.163 Y86.048 E17.06184
G1 X140.774 Y86.714 E17.0919
G1 X141.323 Y87.431 E17.12194
G1 X141.823 Y88.221 E17.15303
G1 X141.872 Y88.307 E17.15632
G1 X142.284 Y89.111 E17.18637
G1 X142.624 Y89.948 E17.21642
G1 X142.887 Y90.812 E17.24646
G1 X143.074 Y91.696 E17.27651
G1 X143.181 Y92.592 E17.30652
G1 X143.209 Y93.205 E17.32693
G1 X143.221 Y94.094 E17.3565
G1 X143.22 Y103.944 E17.68412
G1 X143.21 Y104.641 E17.7073
G1 X143.188 Y105.183 E17.72534
G1 X143.127 Y105.819 E17.74659
G1 X143.098 Y106.046 E17.7542
G1 X142.811 Y108.564 E17.8385
G1 X142.597 Y111.083 E17.92258
G1 X142.452 Y113.646 E18.00796
G1 X142.38 Y116.18 E18.09228
G1 X142.38 Y118.714 E18.17656
G1 X142.452 Y121.247 E18.26084
G1 X142.596 Y123.787 E18.34546
G1 X142.816 Y126.386 E18.43221
G1 X142.987 Y127.96 E18.48487
G1 X143.141 Y129.266 E18.52861
G1 X143.206 Y130.127 E18.55733
G1 X143.219 Y130.619 E18.5737
G1 X143.221 Y130.856 E18.58158
G1 X143.22 Y141.051 E18.92067
G1 X143.21 Y141.782 E18.94498
G1 X143.158 Y142.683 E18.975
G1 X143.026 Y143.577 E19.00505
G1 X142.815 Y144.455 E19.03509
G1 X142.528 Y145.311 E19.06512
G1 X142.166 Y146.138 E19.09514
G1 X141.733 Y146.931 E19.12519
G1 X141.231 Y147.681 E19.15521
G1 X140.664 Y148.385 E19.18528
G1 X140.038 Y149.035 E19.21529
G1 X139.591 Y149.436 E19.23526
G1 X139.36 Y149.631 E19.24532
G1 X138.644 Y150.183 E19.27539
G1 X137.817 Y150.707 E19.30795
G1 X137.506 Y150.882 E19.31982
G1 X128.422 Y155.89 E19.66483
G1 X127.837 Y156.202 E19.68688
G1 X127.022 Y156.591 E19.71692
G1 X126.176 Y156.907 E19.74695
G1 X125.305 Y157.147 E19.777
G1 X123.988 Y157.358 E19.82136
G1 X123.134 Y157.438 E19.84989
G1 X122.837 Y157.461 E19.8598
G1 X122.417 Y157.488 E19.8738
G1 X122.105 Y157.503 E19.88419
G1 X121.734 Y157.513 E19.89653
G1 X121.274 Y157.518 E19.91183
G1 X112.745 Y157.517 E20.19551
G1 X112.055 Y157.507 E20.21846
G1 X111.154 Y157.454 E20.24848
G1 X110.26 Y157.321 E20.27854
G1 X109.789 Y157.218 E20.29458
G1 X109.711 Y157.199 E20.29725
G1 X108.844 Y156.947 E20.32728
G1 X108.002 Y156.619 E20.35733
G1 X107.473 Y156.367 E20.37682
G1 X107.272 Y156.264 E20.38433
G1 X107.013 Y156.126 E20.39409
G1 X105.825 Y155.473 E20.43918
G1 X101.076 Y152.854 E20.61956
G1 X100.626 Y152.597 E20.6368
G1 X98.516 Y151.431 E20.71698
G1 X97.697 Y150.992 E20.74789
G1 X97.466 Y150.864 E20.75667
G1 X96.941 Y150.565 E20.77676
G1 X96.177 Y150.084 E20.80679
G1 X95.458 Y149.537 E20.83684
G1 X94.791 Y148.929 E20.86686
G1 X94.18 Y148.264 E20.89689
G1 X93.63 Y147.547 E20.92695
G1 X93.146 Y146.785 E20.95697
G1 X92.731 Y145.983 E20.98701
G1 X92.388 Y145.147 E21.01706
G1 X92.121 Y144.284 E21.04711
G1 X91.932 Y143.402 E21.07711
G1 X91.796 Y142.068 E21.12171
G1 X91.784 Y141.644 E21.13582
G1 X91.779 Y141.162 E21.15185
G1 X91.78 Y130.965 E21.491
G1 X91.791 Y130.249 E21.51482
G1 X91.874 Y129.103 E21.55304
G1 X92.18 Y126.432 E21.64246
G1 X92.394 Y123.913 E21.72654
G1 X92.539 Y121.351 E21.81189
G1 X92.612 Y118.812 E21.89637
G1 X92.612 Y116.277 E21.98069
G1 X92.541 Y113.75 E22.06477
G1 X92.397 Y111.209 E22.14942
G1 X92.177 Y108.615 E22.236
G1 X92.016 Y107.116 E22.28615
G1 X91.857 Y105.755 E22.33172
G1 X91.793 Y104.886 E22.3607
G1 X91.785 Y104.627 E22.36932
G1 X91.78 Y104.313 E22.37977
G1 X91.78 Y93.821 E22.72873
G1 X91.79 Y93.147 E22.75115
G1 X91.843 Y92.245 E22.7812
G1 X91.976 Y91.352 E22.81123
G1 X92.188 Y90.474 E22.84127
G1 X92.476 Y89.618 E22.87131
G1 X92.839 Y88.791 E22.90135
G1 X93.273 Y87.999 E22.93139
G1 X93.776 Y87.249 E22.96143
G1 X94.343 Y86.546 E22.99147
G1 X94.415 Y86.471 E22.99492
G0 F1080 X94.971 Y85.897
G1 F1200 E19.99492
G0 X122.901 Y87.018
G0 X133.443 Y92.768
G0 X133.684 Y93.171
G0 X133.684 Y104.719
G0 X130.456 Y113.444
G1 F1200 E22.99492
G1 X130.462 Y113.444 E22.99512
G1 X130.463 Y121.773 E23.27215
G1 X130.456 Y121.773 E23.27238
G1 X130.456 Y114.244 E23.52279
G0 F1080 X130.456 Y113.444
G1 F1200 E20.52279
G0 X126.809 Y107.307
G0 X126.509 Y106.495
;TYPE:SUPPORT-INTERFACE
G1 F1200 E23.52279
G1 X123.427 Y107.678 E23.63259
G1 X123.132 Y108.108 E23.64994
G1 X123.133 Y126.891 E24.27466
G1 X123.443 Y127.319 E24.29224
G1 X132.618 Y130.309 E24.6132
G1 X132.617 Y130.309 E24.61323
G1 X132.821 Y130.503 E24.62259
G1 X132.821 Y141.589 E24.99132
G1 X126.644 Y144.995 E25.22593
